papirus/48x48/apps/doublecmd.svg

<?xml version="1.0" encoding="UTF-8" standalone="no"?>
<!-- Created with Inkscape (http://www.inkscape.org/) -->

<svg
   xmlns:dc="http://purl.org/dc/elements/1.1/"
   xmlns:cc="http://creativecommons.org/ns#"
   xmlns:rdf="http://www.w3.org/1999/02/22-rdf-syntax-ns#"
   xmlns:svg="http://www.w3.org/2000/svg"
   xmlns="http://www.w3.org/2000/svg"
   xmlns:sodipodi="http://sodipodi.sourceforge.net/DTD/sodipodi-0.dtd"
   xmlns:inkscape="http://www.inkscape.org/namespaces/inkscape"
   id="svg2817"
   height="48"
   width="48"
   version="1.0"
   inkscape:version="0.91 r13725"
   sodipodi:docname="doublecmd.svg">
  <sodipodi:namedview
     pagecolor="#ffffff"
     bordercolor="#666666"
     borderopacity="1"
     objecttolerance="10"
     gridtolerance="10"
     guidetolerance="10"
     inkscape:pageopacity="0"
     inkscape:pageshadow="2"
     inkscape:window-width="1600"
     inkscape:window-height="849"
     id="namedview14"
     showgrid="false"
     inkscape:zoom="5.33"
     inkscape:cx="12.808485"
     inkscape:cy="21.237875"
     inkscape:window-x="0"
     inkscape:window-y="0"
     inkscape:window-maximized="1"
     inkscape:current-layer="svg2817" />
  <metadata
     id="metadata57">
    <rdf:RDF>
      <cc:Work
         rdf:about="">
        <dc:format>image/svg+xml</dc:format>
        <dc:type
           rdf:resource="http://purl.org/dc/dcmitype/StillImage" />
        <dc:title></dc:title>
      </cc:Work>
    </rdf:RDF>
  </metadata>
  <defs
     id="defs2819" />
  <rect
     style="fill:#d95951"
     id="rect4203-6"
     ry="2"
     rx="2"
     transform="matrix(0,-1,-1,0,0,0)"
     height="40"
     width="40"
     y="-44"
     x="-44" />
  <path
     sodipodi:nodetypes="ccssssccssssc"
     inkscape:connector-curvature="0"
     id="path4256"
     d="m 6,11 0,6 6.855469,0 C 13.488613,17 14,17.366857 14,18 l 0,14 c 0,0.633144 -0.511387,1 -1.144531,1 L 6,33 l 0,6 12,0 c 1.108,0 2,-0.892 2,-2 l 0,-24 c 0,-1.108 -0.892,-2 -2,-2 z"
     style="opacity:0.2;fill:#000000;fill-opacity:1;stroke:none;stroke-width:4;stroke-linecap:round;stroke-linejoin:round;stroke-miterlimit:4;stroke-dasharray:none;stroke-opacity:1" />
  <path
     style="opacity:1;fill:#ffffff;fill-opacity:1;stroke:none;stroke-width:4;stroke-linecap:round;stroke-linejoin:round;stroke-miterlimit:4;stroke-dasharray:none;stroke-opacity:1"
     d="m 6,10 0,6 6.855469,0 C 13.488613,16 14,16.366857 14,17 l 0,14 c 0,0.633144 -0.511387,1 -1.144531,1 L 6,32 l 0,6 12,0 c 1.108,0 2,-0.892 2,-2 l 0,-24 c 0,-1.108 -0.892,-2 -2,-2 z"
     id="rect4174"
     inkscape:connector-curvature="0"
     sodipodi:nodetypes="ccssssccssssc" />
  <path
     style="fill:#ffffff;fill-opacity:1;opacity:0.2"
     d="M 6 4 C 4.892 4 4 4.892 4 6 L 4 7 C 4 5.892 4.892 5 6 5 L 42 5 C 43.108 5 44 5.892 44 7 L 44 6 C 44 4.892 43.108 4 42 4 L 6 4 z "
     id="rect4242" />
  <path
     style="fill:#000000;fill-opacity:1;opacity:0.3"
     d="M 4 41 L 4 42 C 4 43.108 4.892 44 6 44 L 42 44 C 43.108 44 44 43.108 44 42 L 44 41 C 44 42.108 43.108 43 42 43 L 6 43 C 4.892 43 4 42.108 4 41 z "
     id="rect4249" />
  <path
     style="opacity:0.2;fill:#000000;fill-opacity:1;stroke:none;stroke-width:4;stroke-linecap:round;stroke-linejoin:round;stroke-miterlimit:4;stroke-dasharray:none;stroke-opacity:1"
     d="m 42,11 0,6 -6.855469,0 C 34.511387,17 34,17.366857 34,18 l 0,14 c 0,0.633144 0.511387,1 1.144531,1 L 42,33 l 0,6 -12,0 c -1.108,0 -2,-0.892 -2,-2 l 0,-24 c 0,-1.108 0.892,-2 2,-2 z"
     id="path4258"
     inkscape:connector-curvature="0"
     sodipodi:nodetypes="ccssssccssssc" />
  <path
     sodipodi:nodetypes="ccssssccssssc"
     inkscape:connector-curvature="0"
     id="path4254"
     d="m 42,10 0,6 -6.855469,0 C 34.511387,16 34,16.366857 34,17 l 0,14 c 0,0.633144 0.511387,1 1.144531,1 L 42,32 l 0,6 -12,0 c -1.108,0 -2,-0.892 -2,-2 l 0,-24 c 0,-1.108 0.892,-2 2,-2 z"
     style="opacity:1;fill:#ffffff;fill-opacity:1;stroke:none;stroke-width:4;stroke-linecap:round;stroke-linejoin:round;stroke-miterlimit:4;stroke-dasharray:none;stroke-opacity:1" />
</svg>

<?xml version="1.0" encoding="UTF-8" standalone="no"?>
<svg id="svg2817" xmlns:rdf="http://www.w3.org/1999/02/22-rdf-syntax-ns#" xmlns="http://www.w3.org/2000/svg" height="48" width="48" version="1.0" xmlns:cc="http://creativecommons.org/ns#" xmlns:dc="http://purl.org/dc/elements/1.1/">
 <metadata id="metadata57">
  <rdf:RDF>
   <cc:Work rdf:about="">
    <dc:format>image/svg+xml</dc:format>
    <dc:type rdf:resource="http://purl.org/dc/dcmitype/StillImage"/>
    <dc:title/>
   </cc:Work>
  </rdf:RDF>
 </metadata>
 <rect id="rect4203-6" ry="2" rx="2" transform="matrix(0,-1,-1,0,0,0)" height="40" width="40" y="-44" x="-44" fill="#d95951"/>
 <path id="path4256" opacity=".2" d="m6 11v6h6.8555c0.633 0 1.144 0.367 1.144 1v14c0 0.63314-0.51139 1-1.1445 1h-6.856v6h12c1.108 0 2-0.892 2-2v-24c0-1.108-0.892-2-2-2z"/>
 <path id="rect4174" d="m6 10v6h6.8555c0.633 0 1.144 0.367 1.144 1v14c0 0.63314-0.51139 1-1.1445 1h-6.856v6h12c1.108 0 2-0.892 2-2v-24c0-1.108-0.892-2-2-2z" fill="#fff"/>
 <path id="rect4242" opacity=".2" d="m6 4c-1.108 0-2 0.892-2 2v1c0-1.108 0.892-2 2-2h36c1.108 0 2 0.892 2 2v-1c0-1.108-0.892-2-2-2h-36z" fill="#fff"/>
 <path id="rect4249" opacity=".2" d="m4 42v1c0 1.108 0.892 2 2 2h36c1.108 0 2-0.892 2-2v-1c0 1.108-0.892 2-2 2h-36c-1.108 0-2-0.892-2-2z"/>
 <path id="path4258" opacity=".2" d="m42 11v6h-6.8555c-0.633 0-1.144 0.367-1.144 1v14c0 0.63314 0.51139 1 1.1445 1h6.856v6h-12c-1.108 0-2-0.892-2-2v-24c0-1.108 0.892-2 2-2z"/>
 <path id="path4254" d="m42 10v6h-6.8555c-0.633 0-1.144 0.367-1.144 1v14c0 0.63314 0.51139 1 1.1445 1h6.856v6h-12c-1.108 0-2-0.892-2-2v-24c0-1.108 0.892-2 2-2z" fill="#fff"/>
</svg>
